X:1
T:Amor, du herzschest
T:Horatio Vecchi
T:Source : Canzonette mit 3 Stimmen/ H.Vecchi und G Capilupi---Nürnberg---P.Kauffmann--1606. Editor : André Vierendeels (23/02/17).
T:Notes : Original clefs : G2, G2, F3 Editorial accidentals above the staff Text Middle German by Valentin Hauszmann German Contrefactum of "Al tremend'e potente" 1597
T:Amor, du herzschest 
T:©
T:©
C:Horatio Vecchi
Z:©
%%score [ 1 2 3 ]
L:1/8
Q:1/4=121
M:4/4
K:C
V:1 treble nm="Soprano 1" snm="S 1"
V:2 treble nm="Soprano 2" snm="S 2"
V:3 treble-8 nm="Tenor" snm="T"
V:1
"^1)" e8 | c3 d e2 f2 | edcd e2 f2 | d2 e2 d4 |1[M:2/4] e4 :|2 e4 |:[M:4/4] z2 d2 d3 d | d2 d2 e4 | %8
w: A-|mor, du herz- schest|auff _ _ _ _ der|wei- ter Er-|den,|den,|dein Re- gi-|ment be- steh-|
w: Der|nicht al- lein die|Men- * * * * schen|die es wis-|sen,|sen,|son- dern die|thum- men Thier|
 f4 e3 f | g2 g2 a4 | g4 z4 | z2 c2 d2 d2 | d2 d2 e3 f | g2 e2 d2 c2 | d4 e4 | g4 f4 | e4 d4- | %17
w: et heur _|_ als fer-|den,|drumb ein Mo-|narch kanst wol _|_ ge- nen- net|wer- den,|drumb ein|Mo- narch|
w: sind dir _|_ auch g'flis-|sen,|so gar hast|du all macht _|_ zu dir ge-|ris- sen,|so gar|hast du|
 d2 c2 B4 | e4 d3 c | B4 !fermata!A4 :| %20
w: _ kanst wol|ge- nen- net|wer- den.|
w: _ all macht|zu dir ge-|ris- sen.|
V:2
"^2)""^1)" c8 | e3 f g2 a2 | gfed c2 A2 | B2 c4 B2 |1[M:2/4] c4 :|2 c2 c2 |:[M:4/4] B6 B2 | %7
w: A-|mor, du herz- schet|auff _ _ _ _ der|wei- ter Er-|den,|den, dein|Re- gi-|
w: Mein|Hertz und mein Pa-|tron _ _ _ _ dein|gnad mir gön-|nen,|nen, für|dei- nes|
 A2 B2 c4 | A4 G2 A2 | _B4 A2 F2 | G2 G2 G2 G2 | ABcA B4 | A4 ^G3 A | B2 c2 AB c2- | c2 B2 c4 | %15
w: ment be- steh|et heur als|fer- den, drumb|ein Mo- narch kanst|wol _ _ _ _|ge- nen- *|* net wer- * *|* * den,|
w: treu- en Die-|ner mich er-|ken- ne, und|mir ein Gold nach|mei- * * * *|nen wunch be-|nen- * * * *|* * nen,|
 z2 e2 d4 | c4 B4 | A4 ^G3 A | B2 c2 B2 A2- | A2 ^G2 !fermata!A4 :| %20
w: drumb ein|Mo- narch|kanst wol- *|* ge- nen- net|_ wer- den.|
w: und mir|ein Gold|nach mei- *|* nen wunch be-|* nen- nen.|
V:3
"^3)""^1)""^4)" C8 | C2 C2 C2 C2 | c3 B A2 F2 | G8 |1[M:2/4] C4 :|2 C4 |:[M:4/4] z2 G2 G3 G | %7
w: A-|mor, du herz- schet|auff der wei- ter|Er-|den,|den,|dein Re- gi-|
w: Auff|dasz wann du mir|gut- tes thust be-|wei-|sen.|sen,|ich de- sto|
 ^F2 G2 C2 c2 | FGAB c2 A2 | G4 F4 | z2 c2 B4 | A4 G4 | F4 E4- | E2 C2 F2 A2 | G4 C4- | C4 z4 | %16
w: ment be- steh- et|heur _ _ _ _ als|fer- den,|drumb ein|Mo- narch|kanst wol|_ ge- nen- net|wer- den,|_|
w: batz ein solchs mög|von _ _ _ _ dir|prei- sen,|und thun|mit lust,|was du|_ mich denn wirst|heis- sen,|_|
 z2 C2 D2 D2 | D2 D2 E4- | E2 C2 D2 D2 | E4 !fermata!A,4 :| %20
w: drumb ein Mo-|narch kanst wol|_ ge- nen- net|wer- den.|
w: und thun mit|lust, was du|_ mich denn wirst|heis- sen.|

